X: 117
T: Billy Byrne of Ballymanus
N:"Moderate"
B:O'Neill's 117
Z:Transcribed by henrik.norbeck@mailbox.swipnet.se
M:2/4
L:1/8
K:D
(f/e/)|dd FG|A>G F(E/F/)|G/F/E/F/ DD|D3 (F/G/)|
AA d>e|fg/f/ ef/e/|d/c/A/G/ A/B/c/e/|d3 (F/G/)|
AA de|fg/f/ ef/e/|d/c/A/G/ A/B/c/e/|d3 (f/e/)|
dd FG|A>G F(E/F/)|G/F/E/F/ DD|D3||


